X: 41045
T: Trip To London, The
R: jig
M: 6/8
K: Dmajor
|:d2F AFE|DB,A, DFA|B3 AFD|EFE EFA|
dAF AFE|DB,A, DFA|B/c/dB AFD|EDB, DFA:|
|:def g2a|fdB AFA|B3 AFD|EFE EFA|
def g2a|fdB AFA|B/c/dB AFD|EDB, DFA:|

